X: 1271
T: Tom Steele
M:C|
L:1/8
R:Reel
B:O'Neill's 1271
N:Collected by McFadden
Z:Transcribed by Trish O'Neil
K:D
d>D (3DDD F>A(3ABc|dfaf gfec|d>D (3DDD FA{e}dc|BGEF GABc|
d>D (3DDD F>A(3ABc|dfaf (3gag bg|afge fded|BGEF GABc||
d2(fd) adfd|(3ded af gfec|d2(fd) adfd|BGEF GABc|
d2(fd) adfd|(3ded af g2(fg)|(3agf (3gfe fded|BGEF GABc||


